packages/ui-icons/svg/Solid/table-insert-row-after.svg

<svg viewBox="0 0 1920 1920" version="1.1" xmlns="http://www.w3.org/2000/svg">
    <path d="M1920,1694.11765 C1920,1818.69176 1818.69176,1920 1694.11765,1920 L225.882353,1920 C101.421176,1920 -2.27373675e-13,1818.69176 -2.27373675e-13,1694.11765 L-2.27373675e-13,225.882353 C-2.27373675e-13,101.308235 101.421176,-1.34855224e-13 225.882353,-1.34855224e-13 L1694.11765,-1.34855224e-13 C1818.69176,-1.34855224e-13 1920,101.308235 1920,225.882353 L1920,1694.11765 Z M225.882353,790.588235 L225.882353,1694.11765 L1694.11765,1694.11765 L1694.11765,790.588235 L225.882353,790.588235 Z M1355.29412,225.882353 L1355.29412,564.705882 L1694.11765,564.705882 L1694.11765,225.882353 L1355.29412,225.882353 Z M790.588235,225.882353 L790.588235,564.705882 L1129.41176,564.705882 L1129.41176,225.882353 L790.588235,225.882353 Z M225.882353,225.882353 L225.882353,564.705882 L564.705882,564.705882 L564.705882,225.882353 L225.882353,225.882353 Z M564.705882,1113.37412 L831.021176,1113.37412 L831.021176,847.058824 L1088.97882,847.058824 L1088.97882,1113.37412 L1355.29412,1113.37412 L1355.29412,1371.44471 L1088.97882,1371.44471 L1088.97882,1637.64706 L831.021176,1637.64706 L831.021176,1371.44471 L564.705882,1371.44471 L564.705882,1113.37412 Z" stroke="none" stroke-width="1" fill-rule="evenodd"/>
</svg>

<svg viewBox="0 0 1920 1920" xmlns="http://www.w3.org/2000/svg">
    <path d="M1920 1694.118c0 124.574-101.308 225.882-225.882 225.882H225.882C101.422 1920 0 1818.692 0 1694.118V225.882C0 101.308 101.421 0 225.882 0h1468.236C1818.692 0 1920 101.308 1920 225.882v1468.236ZM225.882 790.588v903.53h1468.236v-903.53H225.882Zm1129.412-564.706v338.824h338.824V225.882h-338.824Zm-564.706 0v338.824h338.824V225.882H790.588Zm-564.706 0v338.824h338.824V225.882H225.882Zm338.824 887.492H831.02V847.06h257.958v266.315h266.315v258.07H1088.98v266.203H831.02v-266.202H564.706v-258.07Z" fill-rule="evenodd"/>
</svg>
